X: 32517
T: Planxty Charles Coote
R: reel
M: 4/4
K: Dmajor
AG|:F2 A2 E2 A2|GFED F2 A2|Bc d2 efed|dcBc A2 fe|
d2 a2 abag|fefg a2 gf|gfed dcBc|d4 d:|
|:de|f2 a2 abag|fgaf d2 d2|fgaf dfba|bagf e2 z2|
gfgf e2 fa|gfed dcBc|dcdf ecAc|[F4d4] [F2d2]:|

